X: 17259
T: Herbie Smith's Four-Hand
R: barndance
M: 4/4
K: Gmajor
|:g3 f e2 d2|c3 B A2 G2|G2 A/B/c d2 B2|B2 G2 A4|
g2 f/g/f e3 d|c2 B/c/B A3 G|GABc d2 b/c'/b|a2 d2 g4:|
|:B2 B/B/B B3 B|cBAG B3 d|B2 B/B/B B3 B|A2 G/F/E D4|
B2 BB B/c/B BG|c2 B/A/G B4|B2 cB A/B/A dc|B2 D2 G4:|

